X:4
B:Jardins d'amour
O:Wallonie
M:6/8
L:1/8
Q:C8=40
K:C
GAB |: c2 c c2 c | c2 e g2 e | c2 d e3 |
c2 z GAB | c2 c c2 c | c2 e g2 e | c2 d c3 |
g3 e2 c | dcd e2 c | g3 e2 c | ded c3 |
g3 e2 c | dcd e2 c | g3 e2 c | ded c3- |1 c2 z GAB :|2 c2 z c2 z ||
